X:1
T:Buxtehude - Passcagalia in D Minor.
C:Dieterich Buxtehude.
%%score { ( 1 2 3 ) | ( 4 6 7 ) | 5 }
L:1/8
M:3/2
K:C
V:1 treble nm="Organ" snm="Org."
V:2 treble 
V:3 treble 
V:4 bass 
V:6 bass 
V:7 bass 
V:5 bass 
V:1
"^Passcaglia in D Minor\n           BuxWV 161" z4 z4[Q:1/4=130] z2 f2- | f2 e6 z2 ga | %2
 f6 g2 f2 e2 | d12- | d2 e2 ^c4 z2 f2- | f4 e8- | e4 d6 ^c2 | d6 ^c2 d2 e2 | f2 g2 e4 z2 f2 | %9
 ^c2 B2 c2 d2 e4 | A2 _B2 A2 G2 F2 E2 | D6 E2 F2 G2 | A2 GF E2 FG F4 | z12 | z2 f2 e2 d2 ^c4 | %15
 z2 ^c2 d2 e2 f2 g2 | f2 e2 e4 z2 d2 | x4 z efg a4 | z4 z fed ^c4 | d12- | d4 ^c4 z AGF | %21
 z agf e4- egfe | f8- fgfe | d4- d^cde d3 e | fagf ed^cB AGFG | E4- EFEF GAGA | F4 F4 F4 | %27
 F4 F4- FGFG | A8 z AGA | F4 z4 z dcd | _BgAf GeFd EcGB | [CFA]8 z2 f2- | f2 ed e3 f g4 | c12- | %34
 c2 BA B3 c d4 | x12 | a2 gf g8- | g2 fe f2 [Ac][_Bd] [Ac]3 [GB] | [FA]4 z2 ga g3 f | f4 e4 z2 f2 | %40
 x4 z2 ef g4 | c4 z2 [Ac][Bd] e4 | f8- f2 gf | e4 z4 z4 | z2 cd c2 _BA B2 cB | [CFA]8 z4 | %46
 z efg f2 ga f2 gf | efgf edc_B ABAB | GcAB cdcd cdcd | cdcd cdcd cdcd | %50
 cdcd cdcd[Q:1/4=110] Tc3 B |[Q:1/4=130] cdcd cdcd cdcd | cdcd cdcd cdcd | cdcd cdcd cdcd | %54
 cdcd cdcd _BcBc | _BcBc BcBc ABAB | A_BAB GAGA BcBc | _BcBc ABAB GAGA | GAGA FGFG FGFG | %59
 A3 _B G4- GABc | [CFA]8 z4 | z cde f4 z Bcd | %62
[Q:1/4=120] c2[Q:1/4=110] c2[Q:1/4=100] [Ac]4[Q:1/4=130] z4 | z2 c2 B4 z2 d2 | z2 d2 c4 z2 c2 | %65
 z4 c4 z2 d2 | z2 c2 B4 z2 c2 | z2 c2 B4 z2 B2 | z4 c4 z2 ^G2 | z4 z agf edcB/A/ | %70
 ^GAG^F GF E2 z4 | z B,^C^D E^F^GA B4 | z GAB cdef g4 | z CDE FGAB c4- | c2 BA ^G^F G2 z BAB | %75
 [B,EG]8 z ede | [EAc]8 z c_Bc | A8 z dcd | ^G4 A2 B2 c2 z A | z B z A z B z e z e z d | %80
 z c z d z e z f z g z g | z c z c z c z c z d z d | z e z e z e z e z e z e | %83
 z e z e z e z e z d z d | z c z c z c z c z c z c | z c z c z c z c z d z d | %86
 z d z d z d z d z c z c | z c z c z B z B z B z B | z B z B z A z A z ^G z G | %89
 z A z A z A z A z d z d | z c z c z B z B z B z B | A4 z2[Q:1/4=110] [fa]2 [fa]2 [eg]2 | %92
 [eg]2 [df]2 [df]2 [df]2 [df]2 [cf]2 | [_Be]2 [Ge]2 [Ee]2 [Ge]2 [Fd]4 | (3z2[Q:1/4=140] ^c2 d2 e8 | %95
 (3A2 d2 e2 f4- (3f2 f2 _e2 | d4- (3d2 g2 f2 (3e2 f2 d2- | (3d2 e2 d2 (3^c2 B2 A2 z4 | %98
 z4 (3z2 e2 f2 (3g2 a2 g2 | f4 (3z2 A2 _B2 c4- | (3c2 d2 c2 (3_B2 d2 F2 MG4 | %101
 A4 (3z2 A2 G2 (3F2 E2 F2 | z2 Aa AaAa AaAa | AaAa AaAa AaAa | Agfe dc_BA z _b/a/g/f/e/d/ | %105
 (3:2:2z4 f2 (3:2:2g4 a2 f4 | e8 z4 | z4 (3z2 d2 f2 ^c4 | d8- (3d2 d2 e2 | fagf ed^cB AaAa | %110
 AaAa AaAa AaAa | AaAa AaAa AaAa | Agfe dc_BA z _b/a/g/f/e/d/ | z2 a2 g2 fe f2 gf | [^ce]8 g4 | %115
 f12- | f8 g4 | a8 z4 | AaAa AaAa AaAa | AaAa AaAa AaAa | Agfe dc_BA z _b/a/g/f/e/d/ | %121
[Q:1/4=110] ^c2[Q:1/4=100] d2[Q:1/4=90] Md6[Q:1/4=80][Q:1/4=60] c2 | %122
[Q:1/4=40]!ff! !fermata![D^FAd]12 |] %123
V:2
 z4 z4 z2 A2- | A8 z2 A2- | A12- | A2 GF G8 | A8 z2 A2- | A8- A2 G2 | x12 | x12 | x8 z2 A2- | %9
 A8- A2 G2 | F2 G2 F2 E2 D2 ^C2 | D2 ^C2 D8- | D4 ^C4 D4 | z4 z8 | F2 A2 G2 F2 E3 D | D12- | %16
 D4 ^C4 z2 F2 | z d^cB A4- A_BAG | F6 G2 A4- | AAGF G4- GAFG | AAGF E4 z FED | E4 z d^cB A4- | %22
 A4- A_BAG F4- | FEFG F4- FEFG | A6 E2 FEDE | ^C6 C2 E2 E2 | DED^C D4- DEDC | D4 DED^C D4- | %28
 DEDE ^CEDE C4 | z DCD z FEF D4 | x12 | x8 z2 c2- | c6 d2 c3 _B | A6 A_B A3 G | F6 GA G3 F | %35
 G2 gf edc_B A2 a2- | z4 z2 cd c3 _B | A6 x6 | x4 z4 z4 | z2 cd c3 _B A4- | A2 GF G8- | %41
 G2 x2 z2 x2 c4- | c6 _BA B4- | B2 A_B A3 G A2 BA | G8 G4 | x8 E4 | D8 D4 | E8 F4 | E8 G4 | %49
 C4 F4 E4 | F12- | F4 E4 A4 | [EG]6 [FA]2 [G_B-]4 | [CB]4 [FA]4 [EG]4 | F12- | F2 D2 E4 F4- | %56
 F4 E4 G4- | G4 F4 E4- | E4 D8 | E2 F4 ED E4 | x8 z4 | A4- AcBA [E^G]4 | z ^GAG E4 z4 | %63
 z2 A2 ^G4 z2 B2 | z2 B2 A4 z2 ^G2 | z2 ^G2 A4 z2 A2 | z2 A4 ^G2 z2 A2 | z2 A2 ^G4 z2 E2 | %68
 z4 E4 z2 E2 | z2 E2 D8 | E4- E3 D x4 | x8 z2 =D2 | C4 z8 | x12 | x4 E4 z4 | x8 z4 | x8 G4 | %77
 F4- FGFE D4 | E4 z ^F z ^G z A F2 | ^G2 ^F2 G2 A2 B2 B2 | A2 B2 c2 d2 c2 _B2 | A2 A2 A2 A2 A2 A2 | %82
 A2 A2 ^G2 G2 c2 c2 | [Ec]2 [Ec]2 [EB]2 [EB]2 [EB]2 [EB]2 | [EB]2 [EB]2 [EA]2 [EA]2 [E^G]2 [EG]2 | %85
 [EA]2 [EA]2 [EA]2 [EA]2 [DA]2 [DA]2 | [EA]2 [EA]2 [E^G]2 [EG]2 [EA]2 [EA]2 | %87
 [EA]2 [EA]2 [E^G]2 [EG]2 [DG]2 [DG]2 | [C^G]2 [CG]2 [C^F]2 ^D2 E2 [^CE]2 | E2 E2 E2 E2 D2 D2 | %90
 E2 E2 D2 D2 E2 E2 | [^CE]4 z2 x6 | x12 | x12 | z4 (3z2 E2 F2 (3G2 A2 G2 | x4 (3z2 F2 G2 A4- | %96
 (3A2 G2 F2 G8 | A8 x4 | (3A2 G2 F2 x8 | x4 F4- (3F2 F2 _E2 | x12 | x8 D4 | x12 | x12 | x12 | %105
 (3:2:2^c4 d2- (3:2:2d2 c4 d4 | (3z2 A2 ^G2 A8 | (3z2 A2 ^G2 A8 | (3z2 A2 ^G2 (3A2 =G2 ^F2 x4 | %109
 x12 | x12 | x12 | x12 | ^c8 d2 ed | x8 e4- | e4 d4 ^c4 | d8 e4 | (3f2 e2 d2 ^c4 z4 | x12 | x12 | %120
 x12 | A8 G4 | x12 |] %123
V:3
 z4 z4 z2 D2- | D4 ^C4 z2 E2- | E4 D6 ^C2 | D6 ^C2 D2 E2 | F2 G2 E4 z2 D2- | D4 ^C2 D2 E4 | %6
 F6 G2 F2 E2 | D12- | D4 ^C4 z2 D2 | E12 | x12 | x12 | x12 | x8 A3 G | x12 | x12 | x12 | %17
 z FED ^C4 E4 | x12 | x12 | x12 | ^C6 D2 E4- | E x11 | x12 | x12 | x12 | x12 | x12 | x12 | x12 | %30
 x12 | x8 z2 A2- | A2 GF G8- | G2 FE F4 E4 | D6 x6 | E8 F4- | F2 ED E3 F G4 | C12- | C2 B,A, B,8 | %39
 C8- C3 D | E6 C4 C_B, | x2 FE F4 E4- | E2 DC D2 E2 F4 | G2 FG F3 E F2 GF | E8 C4 | x8 C4 | x12 | %47
 x12 | x12 | x12 | x12 | x12 | x12 | x12 | D4 x8 | x12 | x12 | x12 | x12 | x12 | x8 z4 | F4 D4 x4 | %62
 x8 z4 | z4 E4 z2 E2 | z4 E4 z2 E2 | z4 E4 z2 D2 | z4 E4 z2 E2 | z4 E4 z2 D2 | z2 D2 C4 z4 | x12 | %70
 x12 | x12 | x12 | x12 | D8 z DCD | x8 z4 | x8 z4 | C8 x4 | x12 | x10 E2 | E2 F2 E2 A2 G2 G2 | %81
 G2 G2 F2 E2 D2 D2 | x8 E2 E2 | x12 | x12 | x12 | x12 | x12 | x12 | x12 | x12 | x12 | x12 | x12 | %94
 x12 | x12 | x12 | x12 | x12 | x12 | x12 | x12 | x12 | x12 | x12 | x12 | x12 | x12 | x12 | x12 | %110
 x12 | x12 | x12 | x12 | x12 | x12 | x12 | x12 | x12 | x12 | x12 | F4 E8 | x12 |] %123
V:4
 x12 | x12 | x12 | x12 | x12 | x12 | A,12- | A,4 G,8 | A,12- | A,12 | D2 E,2 F,2 G,2 A,4- | %11
 A,6 G,2 F,2 E,2 | F,2 G,2 A,8 | z2 B,2 ^C2 D2 E4 | A,4 z4 A,3 G, | F,6 E,2 D,4 | A,8 z2 A,2 | %17
 x12 | z DC_B, A,4- A,G,F,E, | D,4- D,^C,D,E, D,3 E, | F,2 G,2 A,_B,A,G, F,4 | x12 |xA,B,^C D6 C2 | %23
 D12- | D4 ^C4 z4 | z B,A,^G, A,8 | A,4 A,_B,A,G, F,G,F,E, | D,E,D,E, F,G,F,E, D,E,D,E, | %28
 F,G,F,G, E,G,F,G, E,4 | D,4 A,4 _B,2 A,2 | G,2 A,2 _B,2 G,2 C2 C,2 | F,C,A,,C, !breath!F,,4 z4 | %32
 z12 | z4 D2 CD C3 _B, | A,2 G,2 x2 C2 B,4 | [G,C]8 C4 | C8- C2 G,2 | A,8 E,4 | F,8 G,4 | %39
 A,4 G,4 F,4 | x12 | A,8- A,2 A,G, | F,12 | C12 | z12 | z G,A,_B, A,2 G,F, G,2 A,G, | %46
 [F,A,]8 [F,B,]4 | [G,C]8 [F,C]4 | C8 C4 | A,6 A,2 G,2 A,2 | F,12 | G,4 C8 | x12 | z4 C8 | %54
 A,4 A,4 _B,4 | C8 C4 | C12- | C12 | A,4 B,8 | C12 | z C,D,E, F,G,A,B, CA,DE | x12 | A,8 z4 | %63
 z4 B,4 z2 B,2 | z4 C4 z2 C2 | z2 B,2 A,4 z2 A,2 | z4 B,4 z2 A,2 | z4 B,4 z2 B,2 | %68
 z2 B,2 A,4 z2 B,2 | z4 A,4 B,4 | C4 B,4 z4 | ^G,4 z4 z2 B,2 | A,4 z4 z2 _B,2 | %73
 [C,A,]8- [C,A,]2 B,2 | C2 D2 B,4 z4 | z ^D,E,^F, E,F,^G,A, B,4 | z B,,C,D, C,D,E,F, G,4 | %77
 z C,D,E, F,2 G,2 A,4 | z DCB, C2 B,2 A,2 C2 | B,2 C2 B,2 C2 B,2 x2 | x12 | x12 | %82
 C2 C2 B,2 B,2 A,2 A,2 | A,2 A,2 ^G,2 G,2 B,2 B,2 | C2 C2 C2 C2 C2 C2 | C2 C2 C2 C2 A,2 A,2 | %86
 B,2 B,2 B,2 B,2 A,2 A,2 | A,2 A,2 B,2 B,2 E,2 E,2 | E,2 E,2 A,2 A,2 B,2 E,2 | %89
 A,2 B,2 C2 C2 B,2 A,2 | ^G,2 A,2 A,2 A,2 G,2 G,2 | A,4 z2 [A,,^C,]2 [B,,D,]2 [C,E,]2 | %92
 [D,F,]2 [E,G,]2 [F,A,]2 [D,F,]2 [_B,D]2 [A,D]2 | [G,D]2 [E,D]2 [A,D]2 [A,^C]2 [D,D]4 | %94
 (3z2 A,2 B,2 (3:2:2^C4 D2 E4 | F4 (3z2 A,2 _B,2 C4 | D12 | F4 E4 (3F2 E2 D2 | x4 E8 | %99
 (3z2 D2 E2 z8 | D12- | (3D2 ^C2 B,2 C4 x4 |[K:treble] [^CE]8 G4 | F12- | F8 G4 | A4 A8 | %106
 ^C4- (3C2 C2 D2 (3E2 F2 =G2 | F8- (3F2 F2 E2 | D8 =G4 | A6 E2 F4 | E8 G4 | F12- | F8 G4 | A12- | %114
 A12 | A,AA,A A,AA,A A,AA,A | A,GFE DC_B,A,[K:bass] G,F,E,D, | %117
 (3:2:2^C,4 D,2 (3E,2[K:treble] A2 G2 (3A2 G2 F2 | E8 G4 | F12- | F8 G4 | z4 f8 | !fermata!f12 |] %123
V:5
 z4 z4!f! D,4 | A,8 ^C,4 | D,8 A,,4 | _B,,12 | A,,8 D,4 | A,8 ^C,4 | D,8 A,,4 | _B,,12 | A,,8 D,4 | %9
 A,8 ^C,4 | D,8 A,,4 | _B,,12 | A,,8 D,4 | A,8 ^C,4 | D,8 A,,4 | _B,,12 | A,,8 D,4 | A,8 ^C,4 | %18
 D,8 A,,4 | _B,,12 | A,,8 D,4 | A,8 ^C,4 | D,8 A,,4 | _B,,12 | A,,8 D,4 | A,8 ^C,4 | D,8 A,,4 | %27
 _B,,12 | A,,12 | D,,8 z4 | z12 | z4 z4!f! F,4 | C8 E,4 | F,8 C,4 | D,12 | C,8 F,4 | C8 E,4 | %37
 F,8 C,4 | D,12 | C,8 F,4 | C8 E,4 | F,8 C,4 | D,12 | C,8 F,4 | C8 E,4 | F,8 C,4 | D,12 | C,8 F,4 | %48
 C8 E,4 | F,8 C,4 | D,12 | C,8 F,4 | C8 E,4 | F,8 C,4 | D,12 | C,8 F,4 | C8 E,4 | F,8 C,4 | D,12 | %59
 C,12 | F,,8 z4 | z12 | z4 z4 A,,4 | E,8 ^G,,4 | A,,8 E,,4 | F,,12 | E,,8 A,,4 | E,8 ^G,,4 | %68
 A,,8 E,,4 | F,,12 | E,,8 A,,4 | E,8 ^G,,4 | A,,8 E,,4 | F,,12 | E,,8 A,,4 | E,8 ^G,,4 | %76
 A,,8 E,,4 | F,,12 | E,,8 A,,4 | E,8 ^G,,4 | A,,8 E,,4 | F,,12 | E,,8 A,,4 | E,8 ^G,,4 | %84
 A,,8 E,,4 | F,,12 | E,,8 A,,4 | E,8 ^G,,4 | A,,8 E,,4 | F,,12 | E,,12 | A,,8 z4 | z12 | %93
 z4 z4 D,4 | A,8 ^C,4 | D,8 A,,4 | _B,,12 | A,,8 D,4 | A,8 ^C,4 | D,8 A,,4 | _B,,12 | A,,8 D,4 | %102
 A,8 ^C,4 | D,8 A,,4 | _B,,12 | A,,8 D,4 | A,8 ^C,4 | D,8 A,,4 | _B,,12 | A,,8 D,4 | A,8 ^C,4 | %111
 D,8 A,,4 | _B,,12 | A,,8 D,4 | A,8 ^C,4 | D,8 A,,4 | _B,,12 | A,,8 D,4 | A,8 ^C,4 | D,8 A,,4 | %120
 _B,,12 | A,,12 | !fermata!D,,12 |] %123
V:6
 x12 | x12 | x12 | x12 | x12 | x12 | x12 | x12 | x12 | x12 | x12 | x12 | x12 | x12 | x12 | x12 | %16
 x12 | x12 | x12 | x12 | x12 | x12 | x12 | x12 | x12 | x12 | x12 | x12 | x12 | x12 | x12 | x12 | %32
 x12 | x12 | x4 F,8 | x12 | x12 | x12 | x12 | x12 | x12 | x12 | x12 | x12 | x12 | x12 | x12 | x12 | %48
 x12 | x12 | x12 | x12 | x12 | x12 | x4 F,8 | G,8 F,4 | x12 | x12 | x12 | x12 | x12 | x12 | x12 | %63
 x12 | x12 | x12 | x12 | x12 | x12 | x12 | x8 CB,A,B, | x4 z4 z2 E,2 | E,4 z4 z2 G,2 | F,12 | x12 | %75
 x12 | x12 | x12 | x12 | x12 | x12 | x12 | x12 | x12 | x12 | x12 | x12 | x12 | x6 ^F,2 ^G,2 x2 | %89
 x12 | x12 | x4 z2 x6 | x12 | x12 | x12 | D4 x8 | x12 | x12 | ^C4 C4 A,4 | _B,4 F,4 F,4- | %100
 F,8 (3z2 D,2 E,2 | F,4 E,4 D,4 |[K:treble] x8 E4- | E4 D4 ^C4 | D8 E4 | %105
 (3F2 E2 D2 E4 (3D2 ^C2 B,2 | x12 | x12 | x8 D4- | D4 ^C4 D4 | ^C8 E4- | E4 D4 ^C4 | D8 E4 | %113
 F4 E4 D4 | E AA,A A,AA,A A,AA,A | x12 | x8[K:bass] x4 | x16/3[K:treble] x8/3 (3F2 E2 D2 | %118
 ^C8 E4- | E4 D4 ^C4 | D8 E4 | x12 | x12 |] %123
V:7
 x12 | x12 | x12 | x12 | x12 | x12 | x12 | x12 | x12 | x12 | x12 | x12 | x12 | x12 | x12 | x12 | %16
 x12 | x12 | x12 | x12 | x12 | x12 | x12 | x12 | x12 | x12 | x12 | x12 | x12 | x12 | x12 | x12 | %32
 x12 | x12 | x12 | x12 | x12 | x12 | x12 | x12 | x12 | x12 | x12 | x12 | x12 | x12 | x12 | x12 | %48
 x12 | x12 | x12 | x12 | x12 | x12 | x12 | x12 | x12 | x12 | x12 | x12 | x12 | x12 | x12 | x12 | %64
 x12 | x12 | x12 | x12 | x12 | x12 | x12 | x12 | x8 z2 C,2 | x10 D,2 | E,8 z4 | x12 | x12 | x12 | %78
 x12 | x12 | x12 | x12 | x12 | x12 | x12 | x12 | x12 | x12 | x12 | x12 | x12 | x12 | x12 | x12 | %94
 x12 | x12 | x12 | x12 | x12 | x12 | x12 | x12 |[K:treble] x12 | x12 | x12 | x12 | x12 | x12 | %108
 x12 | x12 | x12 | x12 | x12 | x12 | x12 | x12 | x8[K:bass] x4 | x16/3[K:treble] x20/3 | x12 | %119
 x12 | x12 | x12 | x12 |] %123

